X: 11585
T: Eeen A Can
R: jig
M: 6/8
K: Bminor
|:B2f efa|fed c3|dcB cde|f3 edc|
B2f efa|fed c3|dcB AFE|FB^A B3:|
|:fef gfe|def B3|cde def|efg f3|
fef gfe|def B3|dcB AFE|FB^A B3:|

